code/lightna/magento-frontend/asset/image/icon/cart.svg

<?xml version="1.0" encoding="UTF-8"?>
<svg xmlns="http://www.w3.org/2000/svg" xmlns:xlink="http://www.w3.org/1999/xlink" width="48px" height="48px" viewBox="0 0 48 48" version="1.1">
<g id="surface1">
<path style=" stroke:none;fill-rule:nonzero;fill:rgb(15.294118%,14.509804%,14.509804%);fill-opacity:1;" d="M 16.96875 40.875 C 16.96875 43.199219 18.859375 45.09375 21.1875 45.09375 C 23.511719 45.09375 25.40625 43.199219 25.40625 40.875 C 25.40625 38.546875 23.511719 36.65625 21.1875 36.65625 C 18.859375 36.65625 16.96875 38.546875 16.96875 40.875 Z M 21.1875 39.46875 C 21.960938 39.46875 22.59375 40.097656 22.59375 40.875 C 22.59375 41.648438 21.960938 42.28125 21.1875 42.28125 C 20.410156 42.28125 19.78125 41.648438 19.78125 40.875 C 19.78125 40.097656 20.410156 39.46875 21.1875 39.46875 Z M 21.1875 39.46875 "/>
<path style=" stroke:none;fill-rule:nonzero;fill:rgb(0%,0%,0%);fill-opacity:1;" d="M 31.125 40.875 C 31.125 43.199219 33.015625 45.09375 35.34375 45.09375 C 37.667969 45.09375 39.5625 43.199219 39.5625 40.875 C 39.5625 38.546875 37.667969 36.65625 35.34375 36.65625 C 33.015625 36.65625 31.125 38.546875 31.125 40.875 Z M 35.34375 39.46875 C 36.117188 39.46875 36.75 40.097656 36.75 40.875 C 36.75 41.648438 36.117188 42.28125 35.34375 42.28125 C 34.566406 42.28125 33.9375 41.648438 33.9375 40.875 C 33.9375 40.097656 34.566406 39.46875 35.34375 39.46875 Z M 35.34375 39.46875 "/>
<path style=" stroke:none;fill-rule:nonzero;fill:rgb(0%,0%,0%);fill-opacity:1;" d="M 46.59375 8.53125 L 11 8.53125 C 10.515625 6.847656 10.066406 5.277344 9.683594 3.925781 C 9.511719 3.324219 8.957031 2.90625 8.332031 2.90625 L 1.40625 2.90625 C 0.628906 2.90625 0 3.535156 0 4.3125 C 0 5.089844 0.628906 5.71875 1.40625 5.71875 L 7.269531 5.71875 C 8.84375 11.222656 12.519531 24.089844 14.058594 29.484375 L 13.527344 30.550781 C 12.125 33.359375 14.167969 36.65625 17.300781 36.65625 L 40.96875 36.65625 C 41.746094 36.65625 42.375 36.027344 42.375 35.25 C 42.375 34.472656 41.746094 33.84375 40.96875 33.84375 L 17.300781 33.84375 C 16.253906 33.84375 15.574219 32.742188 16.042969 31.808594 L 16.429688 31.03125 L 40.96875 31.03125 C 41.597656 31.03125 42.148438 30.613281 42.320312 30.011719 L 47.945312 10.324219 C 48.203125 9.425781 47.527344 8.53125 46.59375 8.53125 Z M 39.90625 28.21875 L 16.621094 28.21875 C 15.855469 25.535156 13.710938 18.03125 11.800781 11.34375 L 44.730469 11.34375 Z M 39.90625 28.21875 "/>
</g>
</svg>

<svg xmlns="http://www.w3.org/2000/svg" width="48" height="48"><path d="M16.969 40.875a4.224 4.224 0 0 0 4.218 4.219 4.226 4.226 0 0 0 4.22-4.219 4.224 4.224 0 0 0-4.22-4.219 4.22 4.22 0 0 0-4.218 4.219m4.218-1.406c.774 0 1.407.629 1.407 1.406a1.41 1.41 0 0 1-1.407 1.406 1.405 1.405 0 1 1 0-2.812m0 0" style="stroke:none;fill-rule:nonzero;fill:#272525;fill-opacity:1"/><path d="M31.125 40.875a4.224 4.224 0 0 0 4.219 4.219 4.226 4.226 0 0 0 4.218-4.219 4.224 4.224 0 0 0-4.218-4.219 4.22 4.22 0 0 0-4.219 4.219m4.219-1.406c.773 0 1.406.629 1.406 1.406a1.41 1.41 0 0 1-1.406 1.406 1.405 1.405 0 1 1 0-2.812m0 0" style="stroke:none;fill-rule:nonzero;fill:#000;fill-opacity:1"/><path d="M46.594 8.531H11c-.484-1.683-.934-3.254-1.316-4.605a1.41 1.41 0 0 0-1.352-1.02H1.406a1.405 1.405 0 1 0 0 2.813H7.27c1.574 5.504 5.25 18.37 6.789 23.765l-.532 1.067c-1.402 2.808.641 6.105 3.774 6.105h23.668a1.405 1.405 0 1 0 0-2.812H17.3a1.406 1.406 0 0 1-1.258-2.035l.387-.778h24.539c.629 0 1.18-.418 1.351-1.02l5.625-19.687a1.406 1.406 0 0 0-1.351-1.793M39.906 28.22H16.621l-4.82-16.875h32.93Zm0 0" style="stroke:none;fill-rule:nonzero;fill:#000;fill-opacity:1"/></svg>
